src/icons/icons_set_04/027-restaurant.svg

<svg height="50" viewBox="0 0 50 50" width="50" xmlns="http://www.w3.org/2000/svg"><path d="m18.0946246 28.9783805c.6677782-.8798557 1.9223834-1.0517783 2.8022391-.3840001.8798556.6677783 1.0517783 1.9223835.384 2.8022391-3.5183509 4.6357317-5.504268 7.2695766-5.9033968 7.8283569-.1145565.1603792-.079404.4763408.1603968.6476589.1298235.0927483.1820679.076847.4256937-.2155041.3413372-.4096045 1.9220072-2.7489963 4.5520889-6.7548129.6062329-.9233393 1.8461961-1.1804049 2.7695354-.574172s1.1804049 1.8461961.574172 2.7695354c-2.786585 4.2441834-4.3309149 6.5297916-4.8229111 7.1201871-1.4402189 1.7282626-3.7105321 2.4192666-5.823818.9094959-2.1209435-1.5152415-2.4356156-4.3436074-1.0900915-6.2273411.4342045-.6078864 2.4067835-3.2240415 5.9720915-7.9216431z"/><path d="m12.2430458 24.883312c-1.0867159-1.1347486-3.59733592-4.6705384-7.71818504-10.8342227-.61391381-.9182503-.36720035-2.1603147.55104995-2.7742285.91825029-.6139139 2.16031471-.3672004 2.77422853.5510499 3.94355566 5.8985008 6.43293566 9.4043777 7.28181496 10.2907773.4215676.4402009 1.2778267.6021958 2.784631.2978908.8207021-.1657441 1.6577827.197267 2.097661.9096786l11.0999361 17.9770705c.7884738.1699966 1.3789746.0339264 1.9032012-.3763379.5265366-.4120722.7682721-1.0141863.6902953-2.006864l-12.9101223-16.5636253c-.3455175-.4432973-.4885621-1.0115197-.3941182-1.5655731.1879312-1.1024943.2524678-1.9840087.2047309-2.6246968-.032615-.4377322-.1039366-.6566722-.1263685-.6831219-.7321746-.863317-3.06023-4.1026425-7.1199402-9.89611673-.6338773-.90458466-.4144256-2.15175446.4901591-2.78563172.9045846-.63387726 2.1517544-.41442555 2.7856317.4901591 3.9406153 5.62351795 6.2841309 8.88435525 6.894773 9.60437155 1.055709 1.2448008 1.2906142 3.1037512.9491511 5.6804819l12.7211123 16.3211263c.2083027.2672514.3452908.5830442.3981089.9177434.4148051 2.6285491-.2734511 4.8180664-2.1181801 6.2617673-1.7978013 1.4069749-3.9994539 1.6550485-6.3496582.8060065-.4246937-.1534261-.784969-.4460557-1.0222045-.8302739l-10.8143155-17.5144893c-2.0856754.1616681-3.8099932-.354584-5.0533925-1.6529413z"/><path d="m8.84431942 10.4969277c-.61962357-.91440711-.38065428-2.1579847.53375285-2.77760828.91440713-.61962357 2.15798473-.38065428 2.77760833.53375285l6.4372558 9.49975583c.6196236.9144072.3806543 2.1579848-.5337528 2.7776083-.9144071.6196236-2.1579847.3806543-2.7776083-.5337528z"/><path d="m23.633291 12.0951733c-.0856067.0032643-.1185544.012464-.0966327-.0040552.218386-.1645657.5176208-.4887271.8680683-.9684791l.1485487-.2033587.1943255-.1601847c2.1906092-1.80574363 5.4628715-2.84318551 8.9635525-2.84318551 6.2850312 0 11.6338737 3.33127211 11.6338737 8.00000001s-5.3488425 8-11.6338737 8c-3.3417895 0-6.4776957-.9451226-8.6641435-2.6062706-.7899035-.6001271-1.9776844-1.7436995-1.7851114-1.5835247-.0019302-.0016054.0516446.019445-.1629024-.0061742-1.0967778-.130967-1.879722-1.1262508-1.748755-2.2230286.0936798-.7845172.6295819-1.4084635 1.3285322-1.6522253-.6711543-.3702512-1.0974805-1.1115119-1.0272227-1.9243901.09104-1.0533286.9828963-1.8451217 2.0241573-1.8276137zm2.1864914 4.5556807c-.014163-.0117803 1.0862821 1.0477069 1.6470505 1.4737492 1.4514426 1.1027297 3.7361339 1.7913069 6.2443204 1.7913069 4.3562518 0 7.6338737-2.0413109 7.6338737-4s-3.2776219-4-7.6338737-4c-2.514793 0-4.8004994.6928462-6.2437332 1.7907419-.9058173 1.1910675-1.8166815 1.9838809-2.8343467 2.2711212.4388707.1503655.819272.3674608 1.186709.6730808z" transform="matrix(.60181502 -.79863551 .79863551 .60181502 .564668 32.964368)"/></svg>

<?xml version="1.0" encoding="UTF-8"?>
<svg width="50px" height="50px" viewBox="0 0 50 50" version="1.1" xmlns="http://www.w3.org/2000/svg" xmlns:xlink="http://www.w3.org/1999/xlink">
    <!-- Generator: Sketch 52.4 (67378) - http://www.bohemiancoding.com/sketch -->
    <title>027-restaurant</title>
    <desc>Created with Sketch.</desc>
    <g id="027-restaurant" stroke="none" stroke-width="1" fill="none" fill-rule="evenodd">
        <path d="M18.0946246,28.9783805 C18.7624028,28.0985248 20.017008,27.9266022 20.8968637,28.5943804 C21.7767193,29.2621587 21.948642,30.5167639 21.2808637,31.3966195 C17.7625128,36.0323512 15.7765957,38.6661961 15.3774669,39.2249764 C15.2629104,39.3853556 15.2980629,39.7013172 15.5378637,39.8726353 C15.6676872,39.9653836 15.7199316,39.9494823 15.9635574,39.6571312 C16.3048946,39.2475267 17.8855646,36.9081349 20.5156463,32.9023183 C21.1218792,31.978979 22.3618424,31.7219134 23.2851817,32.3281463 C24.208521,32.9343792 24.4655866,34.1743424 23.8593537,35.0976817 C21.0727687,39.3418651 19.5284388,41.6274733 19.0364426,42.2178688 C17.5962237,43.9461314 15.3259105,44.6371354 13.2126246,43.1273647 C11.0916811,41.6121232 10.777009,38.7837573 12.1225331,36.9000236 C12.5567376,36.2921372 14.5293166,33.6759821 18.0946246,28.9783805 Z" id="Path-2" fill="#000000" fill-rule="nonzero"></path>
        <path d="M12.2430458,24.883312 C11.1563299,23.7485634 8.64570988,20.2127736 4.52486076,14.0490893 C3.91094695,13.130839 4.15766041,11.8887746 5.07591071,11.2748608 C5.994161,10.6609469 7.23622542,10.9076604 7.85013924,11.8259107 C11.7936949,17.7244115 14.2830749,21.2302884 15.1319542,22.116688 C15.5535218,22.5568889 16.4097809,22.7188838 17.9165852,22.4145788 C18.7372873,22.2488347 19.5743679,22.6118458 20.0142462,23.3242574 L31.1141823,41.3013279 C31.9026561,41.4713245 32.4931569,41.3352543 33.0173835,40.92499 C33.5439201,40.5129178 33.7856556,39.9108037 33.7076788,38.918126 L20.7975565,22.3545007 C20.452039,21.9112034 20.3089944,21.342981 20.4034383,20.7889276 C20.5913695,19.6864333 20.6559061,18.8049189 20.6081692,18.1642308 C20.5755542,17.7264986 20.5042326,17.5075586 20.4818007,17.4811089 C19.7496261,16.6177919 17.4215707,13.3784664 13.3618605,7.58499217 C12.7279832,6.68040751 12.9474349,5.43323771 13.8520196,4.79936045 C14.7566042,4.16548319 16.003774,4.3849349 16.6376513,5.28951955 C20.5782666,10.9130375 22.9217822,14.1738748 23.5324243,14.8938911 C24.5881333,16.1386919 24.8230385,17.9976423 24.4815754,20.574373 L37.2026877,36.8954993 C37.4109904,37.1627507 37.5479785,37.4785435 37.6007966,37.8132427 C38.0156017,40.4417918 37.3273455,42.6313091 35.4826165,44.07501 C33.6848152,45.4819849 31.4831626,45.7300585 29.1329583,44.8810165 C28.7082646,44.7275904 28.3479893,44.4349608 28.1107538,44.0507426 L17.2964383,26.5362533 C15.2107629,26.6979214 13.4864451,26.1816693 12.2430458,24.883312 Z" id="Path-3" fill="#000000" fill-rule="nonzero"></path>
        <path d="M8.84431942,10.4969277 C8.22469585,9.58252059 8.46366514,8.338943 9.37807227,7.71931942 C10.2924794,7.09969585 11.536057,7.33866514 12.1556806,8.25307227 L18.5929364,17.7528281 C19.21256,18.6672353 18.9735907,19.9108129 18.0591836,20.5304364 C17.1447765,21.15006 15.9011989,20.9110907 15.2815753,19.9966836 L8.84431942,10.4969277 Z" id="Path-4" fill="#000000" fill-rule="nonzero"></path>
        <path d="M23.633291,12.0951733 C23.5476843,12.0984376 23.5147366,12.1076373 23.5366583,12.0911181 C23.7550443,11.9265524 24.0542791,11.602391 24.4047266,11.122639 L24.5532753,10.9192803 L24.7476008,10.7590956 C26.93821,8.95335197 30.2104723,7.91591009 33.7111533,7.91591009 C39.9961845,7.91591009 45.345027,11.2471822 45.345027,15.9159101 C45.345027,20.584638 39.9961845,23.9159101 33.7111533,23.9159101 C30.3693638,23.9159101 27.2334576,22.9707875 25.0470098,21.3096395 C24.2571063,20.7095124 23.0693254,19.56594 23.2618984,19.7261148 C23.2599682,19.7245094 23.313543,19.7455598 23.098996,19.7199406 C22.0022182,19.5889736 21.219274,18.5936898 21.350241,17.496912 C21.4439208,16.7123948 21.9798229,16.0884485 22.6787732,15.8446867 C22.0076189,15.4744355 21.5812927,14.7331748 21.6515505,13.9202966 C21.7425905,12.866968 22.6344468,12.0751749 23.6757078,12.0926829 L23.633291,12.0951733 Z M25.8197824,16.650854 C25.8056194,16.6390737 26.9060645,17.6985609 27.4668329,18.1246032 C28.9182755,19.2273329 31.2029668,19.9159101 33.7111533,19.9159101 C38.0674051,19.9159101 41.345027,17.8745992 41.345027,15.9159101 C41.345027,13.957221 38.0674051,11.9159101 33.7111533,11.9159101 C31.1963603,11.9159101 28.9106539,12.6087563 27.4674201,13.706652 C26.5616028,14.8977195 25.6507386,15.6905329 24.6330734,15.9777732 C25.0719441,16.1281387 25.4523454,16.345234 25.8197824,16.650854 Z" id="Oval" fill="#000000" fill-rule="nonzero" transform="translate(33.340481, 15.915910) rotate(-53.000000) translate(-33.340481, -15.915910) "></path>
    </g>
</svg>
